!!!OTL: Der Hammerschmiedssohn
!!!OTL-incipit:Ach Bruder gib mir ein guten Rat,
!!!ARE: Europa, Mitteleuropa, Deutschland / France, Lothringen, Baumbiedersdorf
!!!YOR: 4, S. 360
!!    1939 gedruckt in Kassel
!!!SCT: Q0088G
!!!TXL: @@DE
!!!YEM: Copyright 1995, estate of Helmut Schaffrath.
**kern	**text
*ICvox	*
*M2/4	*
*k[b-]	*
*F:	*
{8c	3._Ach
=1	=1
4f	Bru-
8e	-der
8f	gib
=2	=2
4.g	mir
8a	ein
=3	=3
8ccL	gu-
8b-J	.
8aL	-ten
8b-J	.
=4	=4
4g	Rat,
8r}	.
{8a	es
=5	=5
4cc	ging
8b-	mir
8a	ein
=6	=6
4g	ſtol-
4a	-ʒer
=7	=7
4f	Schuhlnechte
8f	.
8d	.
=8	=8
4d	nach,
8r}	.
{8g	es
=9	=9
8g	ging
8g	mir
4g	ein
=10	=10
4f	ſtol-
4b-	-ʒer
=11	=11
4a	Schuh-
8g	-knech-
8e	-te
=12	=12
4f	nach.
8r}	.
==	==
!!!AGN: Ballade, Verfuehrung, Schwangerschaft, Mord
!! Strophenvariante zu Q0088F.
!!!ONB: ESAC (Essen Associative Code) Database: BALLADE
!!!AMT: simple duple
!!!AIN: vox
!!!EED: Helmut Schaffrath
!!!EEV: 1.0
!!!source: Deutsche Volkslieder mit ihren Melodien. Herausgegeben vom Deutschen Volksliedarchiv. Vierter Band. Berlin 1959.
!!!page: 360
!!!ENC: Anna Maria Matuszewska
!!!EEV: 2025/02/27
*-	*-
